public/assets/logo-white.svg

<svg fill="none" height="112" viewBox="0 0 80 112" width="80" xmlns="http://www.w3.org/2000/svg"><g fill="#fff"><path d="m21.9134 36.8767c0 .6586 0 2.6341-2.7412 2.6341h-2.193v-15.2775h2.2569c2.3739 0 2.6613 1.4171 2.6613 2.634zm-1.7618-14.3977h-6.2063v19.0073h6.2063c3.481 0 4.833-1.1695 4.833-4.1828v-10.747c0-3.0081-1.2615-4.0775-4.833-4.0775z"/><path d="m56.2983 22.479v42.1396h4.2742v-30.102h4.4976v-3.9352h-4.4976v-4.2461h5.3706v-3.8563z"/><path d="m34.8474 96.9596c0 1.2486-.5003 1.5067-1.2455 1.5067-.5695 0-1.2189-.1738-1.2189-1.5067v-87.27674h-4.3806v87.32944c0 3.4717 1.831 5.3047 5.3227 5.3047h.6015c3.4864 0 5.3227-1.833 5.3227-5.3047v-61.7159h-4.4019z"/><path d="m21.0034 80.9603c.1757 1.454-.2874 1.7965-1.155 1.9018l-.9155.1107-4.3859-35.3648.9687-.1212c.8889-.1054 1.3467.1053 1.5276 1.5804zm-5.1736-37.119-6.0466.7375 5.3227 42.6717 6.0466-.7323c3.3958-.4162 4.7159-2.1547 4.2581-5.6474l-4.0506-32.6623c-.4311-3.4611-2.0811-4.7413-5.5249-4.3409"/><path d="m54.3608 98.1922 2.7199.3319 2.688-21.6678 4.9874.6059.2608-2.1125-4.9874-.6059.7452-6.0056 6.8556.8323.2555-2.0334-9.5808-1.1643z"/><path d="m44.9981 24.0912h2.2462c2.1291 0 2.4271 1.3012 2.4271 2.4339v1.7279c0 1.6805-.8143 2.5339-2.4271 2.5339h-2.2462zm0 8.4764h2.2462c2.4271 0 2.4271 1.8912 2.4271 2.5129v6.3217h2.7253v-6.9118c0-1.9492-1.0646-2.5392-1.8577-2.8184l-1.6553-.59 1.682-.432c.6813-.1844 1.815-.7744 1.815-2.7236v-2.1863c0-2.318-1.0645-3.2662-3.7259-3.2662h-6.3872v18.9652h2.7305z"/><path d="m47.7074 52.0805h-1.1391v-4.8941h1.1391c.8995 0 1.2987.2213 1.2987 1.5331v1.7279c0 1.3592-.495 1.6331-1.2987 1.6331zm1.2987 5.1996v28.5901h4.3007v-29.1854c0-1.5382-.5322-2.634-1.5648-3.3031.7292-.4425 1.5648-1.3644 1.5648-3.2609v-2.181c0-2.8027-1.3998-4.1671-4.29-4.1671h-6.7492v42.0975h4.3007v-30.2074h1.1391c.841 0 1.2987.2582 1.2987 1.6173z"/><path d="m69.1947 57.7647v1.4066c-.2555 0-.5908-.1106-1.4584-.8956-.2981-.2686-.5802-.5268-.9102-.7849-.2524-.2521-.5536-.4511-.8856-.5851-.3321-.134-.688-.2002-1.0465-.1946h-.1118c-.974 0-1.5595.4373-1.5595 1.6595v.1843c0 1.1538.6706 1.4962 1.4743 1.4962h1.0007v-1.1537h-.8889c-.3992 0-.5802-.1212-.5802-.4636 0-.3425.181-.4742.5802-.4742h.1278c.4828.0001.946.1896 1.2881.5269l.9793.7375c1.0646.8165 1.6447 1.0536 2.507 1.0536h.5323v-3.6455h-2.2781v1.1642z"/><path d="m68.4763 53.113c.4737 0 .7292.1686.7292.5268s-.2555.5268-.7292.5268h-3.4704c-.5323 0-.7398-.1844-.7398-.5268s.2182-.5531.7398-.5531zm-5.2908.4425v.2213c0 1.159.6228 1.6752 1.8098 1.6752h3.481c1.2242 0 1.8204-.5268 1.8204-1.691v-.2107c0-1.1221-.6068-1.6753-1.8204-1.6753h-3.481c-1.187 0-1.8098.4952-1.8098 1.6805z"/><path d="m66.3792 47.9872c-.1053-.1992-.2703-.3613-.4723-.4641-.202-.1027-.4312-.1412-.6561-.1102h-.5802c-.99 0-1.4797.3846-1.4797 1.5805v.1106c0 1.2117.6121 1.5067 1.4797 1.5067h.6813v-1.0905h-.5961c-.3673 0-.5323-.1106-.5323-.4425s.1863-.4531.5323-.4531h.7132c.362 0 .4684.1001.4684.432v.6743h1.0646v-.7375c0-.3319.1171-.4267.4524-.4267h1.2082c.3779 0 .5802.1422.5802.4741s-.2023.5005-.5802.5005h-.9527v1.1379h1.0645c.8942 0 1.5489-.3319 1.5489-1.5805v-.1896c.0299-.2159.0095-.4357-.0596-.6426-.0692-.2069-.1853-.3953-.3394-.551-.1542-.1556-.3422-.2742-.5499-.3467-.2076-.0726-.4292-.0971-.6479-.0718h-1.352c-.22-.0228-.441.0339-.622.1598s-.3098.3124-.3626.5251"/><path d="m68.4763 43.7253c.4737 0 .7292.1686.7292.5268s-.2555.5268-.7292.5268h-3.4704c-.5323 0-.7398-.1844-.7398-.5268s.2182-.5584.7398-.5584zm-5.2908.4478v.2213c0 1.1537.6228 1.6752 1.8098 1.6752h3.481c1.2242 0 1.8204-.5268 1.8204-1.6963v-.2107c0-1.1169-.6068-1.6753-1.8204-1.6753h-3.481c-1.187 0-1.8098.5268-1.8098 1.6858z"/></g></svg>

<svg width="80" height="112" viewBox="0 0 80 112" fill="none" xmlns="http://www.w3.org/2000/svg">
<path d="M21.9134 36.8767C21.9134 37.5353 21.9134 39.5108 19.1722 39.5108H16.9792V24.2333H19.2361C21.61 24.2333 21.8974 25.6504 21.8974 26.8673L21.9134 36.8767ZM20.1516 22.479H13.9453V41.4863H20.1516C23.6326 41.4863 24.9846 40.3168 24.9846 37.3035V26.5565C24.9846 23.5484 23.7231 22.479 20.1516 22.479Z" fill="white"/>
<path d="M56.2983 22.479V64.6186H60.5725V34.5166H65.0701V30.5814H60.5725V26.3353H65.9431V22.479H56.2983Z" fill="white"/>
<path d="M34.8474 96.9596C34.8474 98.2082 34.3471 98.4663 33.6019 98.4663C33.0324 98.4663 32.383 98.2925 32.383 96.9596V9.68286H28.0024V97.0123C28.0024 100.484 29.8334 102.317 33.3251 102.317H33.9266C37.413 102.317 39.2493 100.484 39.2493 97.0123V35.2964H34.8474V96.9596Z" fill="white"/>
<path d="M21.0034 80.9603C21.1791 82.4143 20.716 82.7568 19.8484 82.8621L18.9329 82.9728L14.547 47.608L15.5157 47.4868C16.4046 47.3814 16.8624 47.5921 17.0433 49.0672L21.0034 80.9603ZM15.8298 43.8413L9.7832 44.5788L15.1059 87.2505L21.1525 86.5182C24.5483 86.102 25.8684 84.3635 25.4106 80.8708L21.36 48.2085C20.9289 44.7474 19.2789 43.4672 15.8351 43.8676" fill="white"/>
<path d="M54.3608 98.1922L57.0807 98.5241L59.7687 76.8563L64.7561 77.4622L65.0169 75.3497L60.0295 74.7438L60.7747 68.7382L67.6303 69.5705L67.8858 67.5371L58.305 66.3728L54.3608 98.1922Z" fill="white"/>
<path d="M44.9981 24.0912H47.2443C49.3734 24.0912 49.6714 25.3924 49.6714 26.5251V28.253C49.6714 29.9335 48.8571 30.7869 47.2443 30.7869H44.9981V24.0912ZM44.9981 32.5676H47.2443C49.6714 32.5676 49.6714 34.4588 49.6714 35.0805V41.4022H52.3967V34.4904C52.3967 32.5412 51.3321 31.9512 50.539 31.672L48.8837 31.082L50.5657 30.65C51.247 30.4656 52.3807 29.8756 52.3807 27.9264V25.7401C52.3807 23.4221 51.3162 22.4739 48.6548 22.4739H42.2676V41.4391H44.9981V32.5676Z" fill="white"/>
<path d="M47.7074 52.0805H46.5683V47.1864H47.7074C48.6069 47.1864 49.0061 47.4077 49.0061 48.7195V50.4474C49.0061 51.8066 48.5111 52.0805 47.7074 52.0805ZM49.0061 57.2801V85.8702H53.3068V56.6848C53.3068 55.1466 52.7746 54.0508 51.742 53.3817C52.4712 52.9392 53.3068 52.0173 53.3068 50.1208V47.9398C53.3068 45.1371 51.907 43.7727 49.0168 43.7727H42.2676V85.8702H46.5683V55.6628H47.7074C48.5484 55.6628 49.0061 55.921 49.0061 57.2801Z" fill="white"/>
<path d="M69.1947 57.7647V59.1713C68.9392 59.1713 68.6039 59.0607 67.7363 58.2757C67.4382 58.0071 67.1561 57.7489 66.8261 57.4908C66.5737 57.2387 66.2725 57.0397 65.9405 56.9057C65.6084 56.7717 65.2525 56.7055 64.894 56.7111H64.7822C63.8082 56.7111 63.2227 57.1484 63.2227 58.3706V58.5549C63.2227 59.7087 63.8933 60.0511 64.697 60.0511H65.6977V58.8974H64.8088C64.4096 58.8974 64.2286 58.7762 64.2286 58.4338C64.2286 58.0913 64.4096 57.9596 64.8088 57.9596H64.9366C65.4194 57.9597 65.8826 58.1492 66.2247 58.4865L67.204 59.224C68.2686 60.0405 68.8487 60.2776 69.711 60.2776H70.2433V56.6321H67.9652V57.7963L69.1947 57.7647Z" fill="white"/>
<path d="M68.4763 53.113C68.95 53.113 69.2055 53.2816 69.2055 53.6398C69.2055 53.998 68.95 54.1666 68.4763 54.1666H65.0059C64.4736 54.1666 64.2661 53.9822 64.2661 53.6398C64.2661 53.2974 64.4843 53.0867 65.0059 53.0867L68.4763 53.113ZM63.1855 53.5555V53.7768C63.1855 54.9358 63.8083 55.452 64.9953 55.452H68.4763C69.7005 55.452 70.2967 54.9252 70.2967 53.761V53.5503C70.2967 52.4282 69.6899 51.875 68.4763 51.875H64.9953C63.8083 51.875 63.1855 52.3702 63.1855 53.5555Z" fill="white"/>
<path d="M66.3792 47.9872C66.2739 47.788 66.1089 47.6259 65.9069 47.5231C65.7049 47.4204 65.4757 47.3819 65.2508 47.4129H64.6706C63.6806 47.4129 63.1909 47.7975 63.1909 48.9934V49.104C63.1909 50.3157 63.803 50.6107 64.6706 50.6107H65.3519V49.5202H64.7558C64.3885 49.5202 64.2235 49.4096 64.2235 49.0777C64.2235 48.7458 64.4098 48.6246 64.7558 48.6246H65.469C65.831 48.6246 65.9374 48.7247 65.9374 49.0566V49.7309H67.002V48.9934C67.002 48.6615 67.1191 48.5667 67.4544 48.5667H68.6626C69.0405 48.5667 69.2428 48.7089 69.2428 49.0408C69.2428 49.3727 69.0405 49.5413 68.6626 49.5413H67.7099V50.6792H68.7744C69.6686 50.6792 70.3233 50.3473 70.3233 49.0987V48.9091C70.3532 48.6932 70.3328 48.4734 70.2637 48.2665C70.1945 48.0596 70.0784 47.8712 69.9243 47.7155C69.7701 47.5599 69.5821 47.4413 69.3744 47.3688C69.1668 47.2962 68.9452 47.2717 68.7265 47.297H67.3745C67.1545 47.2742 66.9335 47.3309 66.7525 47.4568C66.5715 47.5827 66.4427 47.7692 66.3899 47.9819" fill="white"/>
<path d="M68.4763 43.7253C68.95 43.7253 69.2055 43.8939 69.2055 44.2521C69.2055 44.6103 68.95 44.7789 68.4763 44.7789H65.0059C64.4736 44.7789 64.2661 44.5945 64.2661 44.2521C64.2661 43.9097 64.4843 43.6937 65.0059 43.6937L68.4763 43.7253ZM63.1855 44.1731V44.3944C63.1855 45.5481 63.8083 46.0696 64.9953 46.0696H68.4763C69.7005 46.0696 70.2967 45.5428 70.2967 44.3733V44.1626C70.2967 43.0457 69.6899 42.4873 68.4763 42.4873H64.9953C63.8083 42.4873 63.1855 43.0141 63.1855 44.1731Z" fill="white"/>
</svg>
